X:79
%
T:The Geese in the bogs
C:Traditional
L:1/8
M:6/8
Q:1/8=120
K:D
N: From O'Neill's 1001, No. 279
%
|: Add fdB | AFA AGA | Add fdB | AFA B2 A |
Add fdB | AFA DFA | gfe fdB | AFA BdB :|
AFE DFE | DFA BdB | AFD DFA | BGA BdB |
AFE DFE | DFA Bgf | gfe fdB |1 AFA BdB |2 AFA B2 d :|

